icon-themes/sifr_svg/cmd/lc_symbolshapes.heart.svg

<svg viewBox="0 0 24 24" xmlns="http://www.w3.org/2000/svg"><g fill="#555753"><path d="m8.0625 2c-3.3362727 0-6.0625 2.8032453-6.0625 6.234375 0 .6879477.0504886 1.4663231.4296875 2.212891l.0019531.003906.0039063.003906c1.3565255 2.60397 2.8941991 4.06904 4.3476562 5.546875 1.4222566 1.446111 2.8162012 3.178644 4.2167969 5.998047h2c1.432565-2.942256 2.76334-4.520213 4.216797-5.998047 1.453457-1.477835 2.991129-2.942941 4.347656-5.546875l.003906-.003906.001953-.003906c.379112-.7466132.429688-1.5249422.429688-2.212891 0-3.4311297-2.726227-6.234375-6.0625-6.234375-1.546706 0-2.870712.7049191-3.9375 1.6894531-1.066786-.9845272-2.3907936-1.6894531-3.9375-1.6894531zm0 2c1.2770906 0 2.376696.648069 3.126953 1.59375.145568.1836202.159044.1914694.03125.0273438l.294922.3789062h.970703l.294922-.3789062c-.127627.164029-.117837.1556336.027344-.0273438h.001953c.750259-.9456898 1.849864-1.5937499 3.126953-1.59375 2.255909 0 4.0625 1.9143053 4.0625 4.234375 0 .5369292-.07784 1.0081215-.201172 1.2539062-1.209428 2.3193498-2.503384 3.5429658-3.986328 5.0507808-1.213876 1.234235-2.526049 2.848455-3.8125 5.0625-1.286452-2.214044-2.5986238-3.828264-3.8125-5.0625-1.4829439-1.507816-2.7769874-2.731431-3.9863281-5.0507808-.1233285-.2457829-.2011719-.7169758-.2011719-1.2539062 0-2.3200696 1.8065921-4.2343748 4.0625-4.234375z"/><path d="m8.0625 4c1.2770906 0 2.376696.648069 3.126953 1.59375.145568.1836202.159044.1914694.03125.027344l.294922.378906h.970703l.294922-.3789062c-.127627.164029-.117837.1556336.02734-.027344h.002c.750216-.9456896 1.849821-1.5937497 3.12691-1.5937498 2.255909 0 4.0625 1.9143053 4.0625 4.234375 0 .5369292-.07784 1.0081215-.201172 1.2539062-1.209428 2.3193498-2.503384 3.5429658-3.986328 5.0507808-1.213876 1.234235-2.526049 2.848455-3.8125 5.0625-1.286452-2.214044-2.5986238-3.828264-3.8125-5.0625-1.4829439-1.507816-2.7769874-2.731431-3.9863281-5.0507808-.1233285-.2457829-.2011719-.7169758-.2011719-1.2539062 0-2.3200696 1.8065921-4.2343748 4.0625-4.234375z" opacity=".35"/></g></svg>

<svg xmlns="http://www.w3.org/2000/svg" viewBox="0 0 24 24">
  <path
     style="fill:#555753"
     d="M 8.0625 2 C 4.7262273 2 2 4.8032453 2 8.234375 C 2 8.9223227 2.0504886 9.7006981 2.4296875 10.447266 L 2.4316406 10.451172 L 2.4355469 10.455078 C 3.7920724 13.059048 5.329746 14.524118 6.7832031 16.001953 C 8.2054597 17.448064 9.5994043 19.180597 11 22 L 13 22 C 14.432565 19.057744 15.76334 17.479787 17.216797 16.001953 C 18.670254 14.524118 20.207926 13.059012 21.564453 10.455078 L 21.568359 10.451172 L 21.570312 10.447266 C 21.949424 9.7006528 22 8.9223238 22 8.234375 C 22 4.8032453 19.273773 2 15.9375 2 C 14.390794 2 13.066788 2.7049191 12 3.6894531 C 10.933214 2.7049259 9.6092064 2 8.0625 2 z M 8.0625 4 C 9.3395906 4 10.439196 4.648069 11.189453 5.59375 C 11.335021 5.7773702 11.348497 5.7852194 11.220703 5.6210938 L 11.515625 6 L 12.486328 6 L 12.78125 5.6210938 C 12.653623 5.7851228 12.663413 5.7767274 12.808594 5.59375 L 12.810547 5.59375 C 13.560806 4.6480602 14.660411 4.0000001 15.9375 4 C 18.193409 4 20 5.9143053 20 8.234375 C 20 8.7713042 19.92216 9.2424965 19.798828 9.4882812 C 18.5894 11.807631 17.295444 13.031247 15.8125 14.539062 C 14.598624 15.773297 13.286451 17.387517 12 19.601562 C 10.713548 17.387518 9.4013762 15.773298 8.1875 14.539062 C 6.7045561 13.031246 5.4105126 11.807631 4.2011719 9.4882812 C 4.0778434 9.2424983 4 8.7713054 4 8.234375 C 4 5.9143054 5.8065921 4.0000002 8.0625 4 z "
     />
  <path
     style="opacity:0.35;fill:#555753"
     d="m 8.0625,4 c 1.2770906,0 2.376696,0.648069 3.126953,1.59375 0.145568,0.1836202 0.159044,0.1914694 0.03125,0.027344 L 11.515625,6 h 0.970703 L 12.78125,5.6210938 c -0.127627,0.164029 -0.117837,0.1556336 0.02734,-0.027344 h 0.002 C 13.560806,4.6480602 14.660411,4.0000001 15.9375,4 18.193409,4 20,5.9143053 20,8.234375 20,8.7713042 19.92216,9.2424965 19.798828,9.4882812 18.5894,11.807631 17.295444,13.031247 15.8125,14.539062 14.598624,15.773297 13.286451,17.387517 12,19.601562 10.713548,17.387518 9.4013762,15.773298 8.1875,14.539062 6.7045561,13.031246 5.4105126,11.807631 4.2011719,9.4882812 4.0778434,9.2424983 4,8.7713054 4,8.234375 4,5.9143054 5.8065921,4.0000002 8.0625,4 Z"
     />
</svg>
